X: 18851
T: In And Out The Windows
R: polka
M: 2/4
K: Gmajor
|:A|Bd G>A|BA- AA/G/|Ac F>A|AG GG/A/|
B/c/d GG/A/|BA A>^G|A/B/c FA|G2- G:|
A|Bc/B/ AG|FA- A>B|c>d/c/ BA|GB B/^A/B/c/|
de/d/ cB|Ac cA/B/|c>c BA|G2- G>A|
BB AG|FA A/^G/A/B/|c>d/c/ c/B/A|G2 G/A/B/c/|
d^c/d/ gb/d/|fe eg/e/|de/d/ c/B/A|G2- G||

